X:44
T:Alastair of the Dun (in D minor and G minor)
D:Andrew Rankine
Z:Nigel Gatherer
Z:Jack Campin, http://www.campin.me.uk/
F:Jack Campin's Nine-Note Tunebook
% last edit 03-02-2013
L:1/8
M:2/4
Q:1/4=116
K:DMin
% transposed down a fourth
DD F2   |FE/D/ E2   |GG/G/ CC   |G/G/G/G/ CC |
DD F2   |FE/D/ EF/G/|AF    GE   |D2       D2:|
AG DE/G/|AG    D2   |GE    CE/F/|GE       C2 |
AG DE/G/|AG    DE/G/|AF    GE   |D2       D2:|
K:GMin
% original
GG B2   |BA/G/ A2   |cc/c/ FF   |c/c/c/c/ FF |
GG B2   |BA/G/ AB/c/|dB    cA   |G2       G2:|
dc GA/c/|dc    G2   |cA    FA/B/|cA       F2 |
dc GA/c/|dc    GA/c/|dB    cA   |G2       G2:|

